X: 158
P: Longways for as many as will
M: C|
L: 1/8
K: F
cBcd c2(BA) | B2G2 A2c2 |\
fefg f2e2 | d4 c2 |][| c2 |\
gfga g2(ab) | a2gf g2ab |
a2gf g2fe | defg e2(dc) |\
f2ef d2ef | g2fg e2fg |\
a2(ga) fgab | g4 f4 |]

